X: 41862
T: Visa Fran Vilhelmina
R: waltz
M: 3/4
K: Eminor
EF|G4 E2|G4 GA|B4 G2|B4 Bc|d4 d2|
c2 B2 A2|B6|B4:|B2|B2 g2 f2|e4 Bd|
c4 Ac|B4 B2|g2 e2 g2|f2 d2 f2|e6|e4:|

